**kern	**kern
*part1	*part1
*staff2	*staff1
*I"Piano	*
*I'Pno.	*
*clefF4	*clefG2
*k[]	*k[]
*M4/4	*M4/4
=1	=1
1G 1c	1e 1g
=2	=2
2G 2c	2d 2g
2G 2B	2e 2g
=3	=3
1C 1c	1e 1g
=4||	=4||
1G 1c	1e 1g
=5	=5
*^	*^
2c	1G	1g	2.d
2B	.	.	.
.	.	.	4e
*v	*v	*	*
*	*v	*v
=6	=6
1C 1c	1e 1g
=7||	=7||
1A 1c	1e 1a
=8	=8
2A 2d	2e 2a
2A 2c	2f 2a
=9	=9
1A 1c	1e 1ee
==	==
*-	*-
!!!system-decoration: {(s1,s2)}
